X:91
T: IN EINEM THAL BEI ARMEN HIRTEN
N: B0118A
O: Europa, Mitteleuropa, Deutschland
R: Ballade, Romanze
M: 4/4
L: 1/8
K: G
DEF | G3BB3d | dcA2z
DEF | G2BGdcAF | G4z
DEF | G3BB3d | dcA2z
DEF | G2BGdcAF | G4z
ddd | cBAGGFED | EGG2z
ddd | c2A2B2G2 | d4z
cAF | G3BB3d | dBE2z
Bce | edBGdcAF | G4-G

